src/assets/chat.svg

<svg width="58.57mm" height="61.07mm" version="1.1" viewBox="0 0 58.57 61.07" xmlns="http://www.w3.org/2000/svg">
 <g transform="translate(-73.82 -38.788)">
  <g transform="matrix(.050864 0 0 -.050864 -696.7 153.05)">
   <path d="m16272 1462.1c0.1-30.17-10.5-57.29-27.1-76.57-8.2-9.64-17.9-17.34-28.5-22.54-10.6-5.27-22.2-8.05-34.3-8.12h-390.6c-3.6 0-7.2-1.45-9.8-4.02s-4-6.17-4-9.78v-240.87l-191.6 249.26c-2.6 3.4-6.6 5.41-10.9 5.41h-309.6c-12.1 0.07-23.6 2.85-34.2 8.12-16.1 7.83-29.9 21.22-39.9 38.42-9.9 17.13-15.9 38.08-15.9 60.69v649.59c0 30.17 10.6 57.36 27.1 76.64 8.3 9.57 18 17.27 28.7 22.47 10.6 5.27 22.1 8.12 34.2 8.12h916.5c12.1 0 23.7-2.85 34.3-8.12 15.9-7.83 29.8-21.15 39.8-38.35 9.9-17.2 15.8-38.08 15.8-60.76zm-43.4 773.46c-14.2 7.01-30 10.89-46.5 10.89h-916.5c-16.5 0-32.3-3.88-46.5-10.89-21.3-10.54-39.1-27.88-51.5-49.31s-19.5-47.09-19.5-74.56v-649.59c0-36.55 12.7-69.98 33.7-94.47 10.5-12.27 23.1-22.4 37.3-29.4 14.2-7.01 30-10.96 46.5-10.96h302.8l212.1-276.11c3.6-4.65 9.8-6.52 15.4-4.65 5.7 1.94 9.4 7.15 9.4 13.04v267.79l376.8-0.07c16.5 0 32.3 3.95 46.5 10.96 21.3 10.54 39 27.88 51.4 49.31 12.5 21.43 19.6 47.09 19.6 74.56v649.59c0 36.62-12.7 69.99-33.6 94.54-10.6 12.27-23.2 22.33-37.4 29.33"/>
  </g>
  <g transform="matrix(.050221 0 0 -.050221 -696.7 153.05)">
   <path d="m16170 1579c-62.7-62.8-149.3-101.51-245-101.51-95.8 0-182.3 38.71-245.1 101.51-62.8 62.72-101.5 149.26-101.5 245.01 0 95.74 38.7 182.28 101.5 245.08 62.8 62.73 149.3 101.5 245.1 101.5 95.7 0 182.3-38.77 245-101.5 62.8-62.8 101.5-149.34 101.6-245.08-0.1-95.75-38.8-182.29-101.6-245.01zm-245 619.55c-103.4 0-197.1-41.94-264.8-109.72-67.8-67.72-109.7-161.42-109.7-264.82 0-103.33 41.9-197.11 109.7-264.83 67.7-67.78 161.4-109.65 264.8-109.65s197.1 41.87 264.8 109.65c67.8 67.72 109.7 161.5 109.7 264.83 0 103.4-41.9 197.1-109.7 264.82-67.7 67.78-161.4 109.72-264.8 109.72"/>
  </g>
  <g transform="matrix(.049721 0 0 -.049721 -696.7 153.05)">
   <path d="m16272 1793.6h-123.1c-3.7 0-7.3-1.49-10-4.12-2.6-2.62-4.2-6.31-4.2-10v-123.1h-97.6v123.1c0 3.69-1.5 7.38-4.1 10-2.6 2.63-6.2 4.12-10 4.12h-123v97.7h123c3.8 0 7.4 1.42 10 4.04 2.6 2.7 4.1 6.32 4.1 10.01v123.1h97.6v-123.1c0-3.69 1.6-7.31 4.2-10.01 2.7-2.62 6.3-4.04 10-4.04h123.1zm14.1 125.87h-123v123.1c0 3.69-1.6 7.37-4.2 10-2.7 2.55-6.3 4.12-10 4.12h-125.9c-3.7 0-7.3-1.57-9.9-4.12-2.7-2.63-4.2-6.31-4.2-10v-123.1h-123.1c-3.6 0-7.3-1.49-9.9-4.12-2.7-2.62-4.2-6.24-4.2-10v-125.87c0-3.69 1.5-7.38 4.2-9.93 2.6-2.63 6.3-4.19 9.9-4.19h123.1v-123.1c0-3.69 1.5-7.31 4.2-9.93 2.6-2.63 6.2-4.12 9.9-4.12h125.9c3.7 0 7.3 1.49 10 4.12 2.6 2.62 4.2 6.24 4.2 9.93v123.1h123c3.7 0 7.3 1.56 10 4.19 2.6 2.55 4.1 6.24 4.1 9.93v125.87c0 3.76-1.5 7.38-4.1 10-2.7 2.63-6.3 4.12-10 4.12"/>
  </g>
 </g>
</svg>

<svg width="58.57mm" height="61.07mm" version="1.1" viewBox="0 0 58.57 61.07" xmlns="http://www.w3.org/2000/svg">
  <defs>
    <radialGradient gradientUnits="userSpaceOnUse" cx="15925" cy="1824.04" r="374.5" id="gradient-0" spreadMethod="pad">
      <stop offset="0" style="stop-color: rgba(144, 191, 36, 1)"></stop>
      <stop offset="1" style="stop-color: rgba(80, 105, 20, 1)"></stop>
    </radialGradient>
    <linearGradient gradientUnits="userSpaceOnUse" x1="15925" y1="1449.53" x2="15925" y2="2198.55" id="gradient-1">
      <stop offset="0" style="stop-color: #bada55"></stop>
      <stop offset="1" style="stop-color: #758d29"></stop>
    </linearGradient>
  </defs>
  <g transform="translate(-73.82 -38.788)" fill="#C9DEA1">
    <g transform="matrix(.050864 0 0 -.050864 -696.7 153.05)" fill="#C9DEA1">
      <path d="M 16228.6 2235.56 C 16214.4 2242.57 16198.6 2246.45 16182.1 2246.45 L 15265.6 2246.45 C 15249.1 2246.45 15233.3 2242.57 15219.1 2235.56 C 15197.8 2225.02 15180 2207.68 15167.6 2186.25 C 15155.2 2164.82 15148.1 2139.16 15148.1 2111.69 L 15148.1 1462.1 C 15148.1 1425.55 15160.8 1392.12 15181.8 1367.63 C 15192.3 1355.36 15204.9 1345.23 15219.1 1338.23 C 15233.3 1331.22 15249.1 1327.27 15265.6 1327.27 L 15568.4 1327.27 L 15780.5 1051.16 C 15784.1 1046.51 15790.3 1044.64 15795.9 1046.51 C 15801.6 1048.45 15805.3 1053.66 15805.3 1059.55 L 15805.3 1327.34 L 16182.1 1327.27 C 16198.6 1327.27 16214.4 1331.22 16228.6 1338.23 C 16249.9 1348.77 16267.6 1366.11 16280 1387.54 C 16292.5 1408.97 16299.6 1434.63 16299.6 1462.1 L 16299.6 2111.69 C 16299.6 2148.31 16286.9 2181.68 16266 2206.23 C 16255.4 2218.5 16242.8 2228.56 16228.6 2235.56" style=""></path>
    </g>
    <g transform="matrix(.050221 0 0 -.050221 -696.7 153.05)">
      <path d="M 15925 2198.55 C 15821.6 2198.55 15727.9 2156.61 15660.2 2088.83 C 15592.4 2021.11 15550.5 1927.41 15550.5 1824.01 C 15550.5 1720.68 15592.4 1626.9 15660.2 1559.18 C 15727.9 1491.4 15821.6 1449.53 15925 1449.53 C 16028.4 1449.53 16122.1 1491.4 16189.8 1559.18 C 16257.6 1626.9 16299.5 1720.68 16299.5 1824.01 C 16299.5 1927.41 16257.6 2021.11 16189.8 2088.83 C 16122.1 2156.61 16028.4 2198.55 15925 2198.55" style="stroke: rgb(186, 218, 85); fill-rule: nonzero; fill: rgb(25, 92, 163);"></path>
    </g>
    <g transform="matrix(.049721 0 0 -.049721 -696.7 153.05)" fill="#CFADDF">
      <path d="M 16286.1 1919.47 L 16163.1 1919.47 L 16163.1 2042.57 C 16163.1 2046.26 16161.5 2049.94 16158.9 2052.57 C 16156.2 2055.12 16152.6 2056.69 16148.9 2056.69 L 16023 2056.69 C 16019.3 2056.69 16015.7 2055.12 16013.1 2052.57 C 16010.4 2049.94 16008.9 2046.26 16008.9 2042.57 L 16008.9 1919.47 L 15885.8 1919.47 C 15882.2 1919.47 15878.5 1917.98 15875.9 1915.35 C 15873.2 1912.73 15871.7 1909.11 15871.7 1905.35 L 15871.7 1779.48 C 15871.7 1775.79 15873.2 1772.1 15875.9 1769.55 C 15878.5 1766.92 15882.2 1765.36 15885.8 1765.36 L 16008.9 1765.36 L 16008.9 1642.26 C 16008.9 1638.57 16010.4 1634.95 16013.1 1632.33 C 16015.7 1629.7 16019.3 1628.21 16023 1628.21 L 16148.9 1628.21 C 16152.6 1628.21 16156.2 1629.7 16158.9 1632.33 C 16161.5 1634.95 16163.1 1638.57 16163.1 1642.26 L 16163.1 1765.36 L 16286.1 1765.36 C 16289.8 1765.36 16293.4 1766.92 16296.1 1769.55 C 16298.7 1772.1 16300.2 1775.79 16300.2 1779.48 L 16300.2 1905.35 C 16300.2 1909.11 16298.7 1912.73 16296.1 1915.35 C 16293.4 1917.98 16289.8 1919.47 16286.1 1919.47" style="fill: rgb(201, 222, 161);"></path>
    </g>
  </g>
</svg>
